X:2616
T:Captain Campbell 
M:4/4 
C:Trad. 
A:Cape Breton
R:Strathspey
H:Transcribed by Wil Macaulay (wil@syndesis.com)
H:Learned from David Greenberg spring 1994.
N:Open A 1/4 notes sometimes cut, sometimes unison roll
K:Am
L:1/8
G | E<AA>B c>AB<G | D<GG>A B>d c/B/A/G/ | E<AA>B c>Bc<e | dB A/A/A A :|
B | A<aa>g e>dc<e | d>eg>e d/c/B/A/ GB | A<aa>g e>dc<e | dB A/A/A A B |
A<aa>g e>dc<e | d>eg>e d/c/B/A/ GB | c<Ad>B e>dc<e | dB A/A/A A ||
